X: 20444
M: 6/8
L: 1/8
K: D
d2c d2c | d2f ABc | d2c d2c | d2f ABc |\
d2c d2f | ea^g fed | cfe dcB | A3 :|
|: A2-A |\
edc cBA | ^GBd fed | Afe dcB | A3 |]



